TrafficJam2023/images/logos/safepal.svg

<svg width="192" height="57" viewBox="0 0 192 57" fill="none" xmlns="http://www.w3.org/2000/svg">
<path fill-rule="evenodd" clip-rule="evenodd" d="M48.6613 32.5968V36.5485C48.6613 47.5272 32.8788 53.8461 28.0411 55.5218L26.2816 56.1357V49.3058L27.1412 48.9783C34.6678 46.1191 42.2619 41.1666 42.2619 36.5485V32.5968H48.6613ZM24.7589 0.196228L31.2086 2.20354V9.17189L24.7589 7.15776L24.337 7.28967V22.9683H31.2086V29.4282H24.337V56.0401L22.5452 55.3663C21.7135 55.0542 20.3734 54.5225 18.7156 53.7636L17.9369 53.4048V2.32105L24.7589 0.196228ZM15.9123 2.97723V9.91399L7.17339 12.6521V22.9682H15.9123V52.8464L13.9769 51.8416C7.95384 48.7127 0.774048 43.4366 0.774048 36.0697V32.5969H7.17339V36.0697C7.17339 37.5941 7.95935 39.1955 9.51224 40.8447V29.4281H0.774048V7.69364L15.9123 2.97723ZM33.1512 2.81208L48.6613 7.65687V29.4282H39.5548V38.8552C39.5548 38.8552 37.5189 41.5492 33.1569 43.8049C33.1569 42.5582 33.1542 23.3902 33.1525 11.7126L33.1512 2.81208ZM154.595 12.83C159.92 12.8156 164.247 17.16 164.261 22.5335C164.275 27.907 159.971 32.2746 154.647 32.289L148.513 32.3052L148.542 43.1722L143.534 43.1858L143.453 12.8601L154.595 12.83ZM131.1 22.1824C136.838 22.1824 141.491 26.8779 141.491 32.6701C141.491 33.5867 141.374 34.476 141.155 35.3236L126.401 35.3238C127.322 36.9824 129.081 38.1034 131.1 38.1034C132.063 38.1034 132.967 37.8482 133.749 37.4009V37.4181L139.219 39.2151C137.315 41.6184 134.385 43.1577 131.1 43.1577C125.361 43.1577 120.709 38.4623 120.709 32.6701C120.709 26.8779 125.361 22.1824 131.1 22.1824ZM119.707 12.832V17.8863H118.455C116.545 17.8863 114.992 19.4278 114.95 21.3454L114.95 22.1824H119.707V27.2367H114.95V43.1577H109.942V27.2367H107.689V22.1824H109.942V20.4134C109.942 16.2264 113.305 12.832 117.454 12.832H119.707ZM95.2909 22.1823C95.3165 22.1823 95.344 22.1846 95.3721 22.1846C95.5153 22.1846 95.6585 22.1894 95.8017 22.1967C97.6924 22.2877 99.4506 22.8891 100.944 23.8674L105.685 22.2619V43.1576H100.726V41.6107C100.412 41.8066 100.084 41.9863 99.746 42.1475V42.1356C99.24 42.3833 98.7199 42.586 98.1856 42.7447L98.0842 42.773C97.9568 42.8076 97.8271 42.8402 97.6979 42.873L97.5013 42.9198C97.3972 42.9408 97.2935 42.9618 97.1893 42.9802C97.1082 42.9966 97.0296 43.0108 96.9487 43.0249C96.8468 43.0411 96.7454 43.0527 96.6413 43.0669C96.5629 43.0782 96.484 43.0899 96.4031 43.097C96.2782 43.1108 96.151 43.1207 96.0263 43.1298C95.9685 43.1318 95.9106 43.1391 95.855 43.1417C95.6678 43.1528 95.4782 43.1576 95.2887 43.1576C92.9699 43.1576 90.8313 42.3901 89.1019 41.0927C88.702 40.7844 88.3162 40.4462 87.9436 40.0704C87.5876 39.7111 87.2666 39.3381 86.9704 38.9507C85.7613 37.3194 85.0124 35.3219 84.9152 33.1519C84.9082 33.0073 84.9034 32.8628 84.9034 32.7157V32.6621C84.9082 26.8775 89.5551 22.1873 95.2864 22.1823H95.2909ZM174.162 22.1823C174.188 22.1823 174.215 22.1846 174.243 22.1846C174.387 22.1846 174.53 22.1894 174.673 22.1967C176.564 22.2877 178.322 22.8891 179.815 23.8674L184.557 22.2619V43.1576H179.598V41.6107C179.283 41.8066 178.955 41.9863 178.617 42.1475V42.1356C178.111 42.3833 177.591 42.586 177.057 42.7447L176.956 42.773C176.828 42.8076 176.698 42.8402 176.569 42.873L176.373 42.9198C176.269 42.9408 176.165 42.9618 176.061 42.9802C175.98 42.9966 175.901 43.0108 175.82 43.0249C175.718 43.0411 175.617 43.0527 175.513 43.0669C175.434 43.0782 175.355 43.0899 175.274 43.097C175.15 43.1108 175.022 43.1207 174.898 43.1298C174.84 43.1318 174.782 43.1391 174.726 43.1417C174.539 43.1528 174.35 43.1576 174.16 43.1576C171.841 43.1576 169.703 42.3901 167.973 41.0927C167.573 40.7844 167.188 40.4462 166.815 40.0704C166.459 39.7111 166.138 39.3381 165.842 38.9507C164.633 37.3194 163.884 35.3219 163.786 33.1519C163.78 33.0073 163.775 32.8628 163.775 32.7157V32.6621C163.78 26.8775 168.426 22.1873 174.158 22.1823H174.162ZM191.568 12.9381V43.1577H186.56V14.5802L191.568 12.9381ZM71.7822 12.8319C76.5177 12.8319 80.1413 15.29 82.0767 19.3719C78.9214 20.4052 77.1406 20.9862 76.734 21.1141C75.7087 19.482 74.2164 18.4138 71.7822 18.4138C69.3937 18.4138 67.9936 19.6637 67.9936 21.3296C67.9936 23.1209 69.1055 24.0789 73.4705 25.412C78.0413 26.8699 82.9003 28.4112 82.9003 34.3684C82.9003 39.8251 78.5766 43.1576 72.4409 43.1576C66.5524 43.1576 62.6817 40.2835 61.1168 35.9509C63.3875 35.2171 65.2063 34.681 66.5732 34.3429C67.7189 36.3176 69.6183 37.5339 72.6057 37.5339C76.0237 37.5339 77.2178 36.0763 77.2178 34.4516C77.2178 32.2856 75.2823 31.4524 70.9997 30.2024C66.5934 28.9113 62.3111 27.0367 62.3111 21.4967C62.3111 15.9976 66.8408 12.8319 71.7822 12.8319ZM95.1705 26.9839C92.1276 26.9839 89.6608 29.4736 89.6608 32.5451C89.6608 35.6136 92.1276 38.1033 95.1705 38.1033C98.2117 38.1033 100.678 35.6136 100.678 32.5451C100.678 29.4736 98.2117 26.9839 95.1705 26.9839ZM174.042 26.9839C170.999 26.9839 168.532 29.4736 168.532 32.5451C168.532 35.6136 170.999 38.1033 174.042 38.1033C177.083 38.1033 179.549 35.6136 179.549 32.5451C179.549 29.4736 177.083 26.9839 174.042 26.9839ZM131.1 27.2367C128.98 27.2367 127.147 28.4727 126.269 30.2693H135.93C135.052 28.4727 133.219 27.2367 131.1 27.2367ZM154.609 17.8843L148.474 17.9007L148.499 27.2512L154.634 27.2347C157.192 27.2279 159.26 25.1289 159.254 22.5469C159.247 19.9932 157.213 17.9232 154.693 17.8848L154.609 17.8843ZM39.5548 11.7771V22.9683H42.2619V12.6207L39.5548 11.7771Z" fill="#FCFDFD"/>
</svg>

<svg xmlns="http://www.w3.org/2000/svg" width="192" height="57" fill="none" viewBox="0 0 192 57"><path fill="#FCFDFD" fill-rule="evenodd" d="M48.661 32.597v3.951c0 10.98-15.782 17.298-20.62 18.974l-1.76.614v-6.83l.86-.328c7.527-2.859 15.12-7.811 15.12-12.43v-3.951h6.4ZM24.76.197l6.45 2.007v6.968l-6.45-2.014-.422.132v15.678h6.872v6.46h-6.872V56.04l-1.792-.674a59.876 59.876 0 0 1-3.83-1.602l-.778-.36V2.322L24.759.196Zm-8.847 2.78v6.937l-8.739 2.738v10.316h8.74v29.878l-1.936-1.004C7.954 48.712.774 43.437.774 36.07v-3.473h6.4v3.473c0 1.524.785 3.126 2.338 4.775V29.428H.774V7.694l15.138-4.717Zm17.24-.165 15.51 4.845v21.771h-9.107v9.427s-2.036 2.694-6.398 4.95l-.004-32.092-.002-8.9ZM154.594 12.83c5.325-.014 9.652 4.33 9.666 9.704.014 5.373-4.29 9.74-9.614 9.755l-6.134.016.029 10.867-5.008.014-.081-30.326 11.142-.03ZM131.1 22.182c5.738 0 10.391 4.696 10.391 10.488a10.6 10.6 0 0 1-.336 2.654h-14.754a5.373 5.373 0 0 0 4.699 2.78c.963 0 1.867-.256 2.649-.703v.017l5.47 1.797c-1.904 2.403-4.834 3.943-8.119 3.943-5.739 0-10.391-4.696-10.391-10.488s4.652-10.488 10.391-10.488Zm-11.393-9.35v5.054h-1.252c-1.91 0-3.463 1.542-3.505 3.46v.836h4.757v5.055h-4.757v15.92h-5.008v-15.92h-2.253v-5.055h2.253v-1.769c0-4.187 3.363-7.581 7.512-7.581h2.253Zm-24.416 9.35c.026 0 .053.003.081.003a10.26 10.26 0 0 1 5.572 1.683l4.741-1.606v20.896h-4.959V41.61a9.926 9.926 0 0 1-.98.537v-.012c-.506.247-1.026.45-1.56.609l-.102.028c-.127.035-.257.067-.386.1l-.197.047c-.104.02-.208.042-.312.06-.08.017-.16.03-.24.045-.102.016-.204.028-.308.042-.078.011-.157.023-.238.03a9.585 9.585 0 0 1-.377.033c-.057.002-.115.01-.171.012a10.268 10.268 0 0 1-6.753-2.049 11.596 11.596 0 0 1-2.132-2.142 10.502 10.502 0 0 1-2.067-6.235v-.054c.005-5.784 4.652-10.475 10.383-10.48h.005Zm78.871 0c.026 0 .053.003.081.003a10.257 10.257 0 0 1 5.572 1.683l4.742-1.606v20.896h-4.959V41.61c-.315.196-.643.375-.981.537v-.012a10.06 10.06 0 0 1-1.56.609l-.101.028c-.128.035-.258.067-.387.1l-.196.047c-.104.02-.208.042-.312.06-.081.017-.16.03-.241.045-.102.016-.203.028-.307.042-.079.011-.158.023-.239.03a9.535 9.535 0 0 1-.376.033c-.058.002-.116.01-.172.012a10.27 10.27 0 0 1-6.753-2.049 11.522 11.522 0 0 1-2.131-2.142 10.51 10.51 0 0 1-2.067-6.235v-.054c.005-5.784 4.651-10.475 10.383-10.48h.004Zm17.406-9.244v30.22h-5.008V14.58l5.008-1.642Zm-119.786-.106c4.736 0 8.36 2.458 10.295 6.54a1037.84 1037.84 0 0 1-5.343 1.742c-1.025-1.632-2.518-2.7-4.952-2.7-2.388 0-3.788 1.25-3.788 2.916 0 1.79 1.112 2.749 5.477 4.082 4.57 1.458 9.43 3 9.43 8.956 0 5.457-4.324 8.79-10.46 8.79-5.889 0-9.76-2.875-11.324-7.207 2.27-.734 4.09-1.27 5.456-1.608 1.146 1.975 3.045 3.19 6.033 3.19 3.418 0 4.612-1.457 4.612-3.081 0-2.166-1.936-3-6.218-4.25-4.407-1.29-8.689-3.165-8.689-8.705 0-5.5 4.53-8.665 9.471-8.665Zm23.389 14.152c-3.043 0-5.51 2.49-5.51 5.561 0 3.069 2.467 5.558 5.51 5.558 3.04 0 5.507-2.49 5.507-5.558 0-3.071-2.466-5.561-5.507-5.561Zm78.871 0c-3.043 0-5.51 2.49-5.51 5.561 0 3.069 2.467 5.558 5.51 5.558 3.041 0 5.507-2.49 5.507-5.558 0-3.071-2.466-5.561-5.507-5.561Zm-42.942.253a5.379 5.379 0 0 0-4.831 3.032h9.661a5.378 5.378 0 0 0-4.83-3.032Zm23.509-9.353-6.135.017.025 9.35 6.135-.016c2.558-.007 4.626-2.106 4.62-4.688-.007-2.554-2.041-4.624-4.561-4.662h-.084ZM39.555 11.777v11.191h2.707V12.621l-2.707-.844Z" clip-rule="evenodd"/></svg>
